X:1
T:Come All Ye Southern Soldiers
M:4/4
L:1/4
K:D
 z2 z F| A3/2 F/2E/2 E/2 D| A2 A B| F3/2 E/2 D E| D3 B| A3/2 F/2 E D|\
 A2 A B| F3/2 E/2 D E| D3 A,| D D/2E/2 F A| d2 f e| d3/2 B/2 A d| B3 d|\
 A3/2 F/2 E D| A3/2 B/2 A B/2B/2| A3/2 F/2 D E| D3 z|
